X: 1395
T: Robin Redbreast
M:C|
L:1/8
N:"collected by Cronin"
B:O'Neill's 1395
Z:"Transcribed by Bob Safranek, rjs@gsp.org"
K:A
(cd) | ecAB c3 d | edce dBGB | AGAB cBcd | efge  afgf |
       ecAB c3 d | edce dBGB | AGAf gfgf | edcB  A2 ||
(cd) | eaag efge | dBge dBGB | AGAB cBcd | e^def gfed |
       eaag efge | dBge dBGB | ABcd efge | dBGB  A2 |]


